icons/coupon-5-fill.svg

<svg xmlns="http://www.w3.org/2000/svg" width="24" height="24" fill="none"><g clip-path="url(#a)"><g><path fill="#121212" d="M21 14V21C21 21.2652 20.8946 21.5196 20.7071 21.7071C20.5196 21.8946 20.2652 22 20 22H4C3.73478 22 3.48043 21.8946 3.29289 21.7071C3.10536 21.5196 3 21.2652 3 21V14C3.53043 14 4.03914 13.7893 4.41421 13.4142C4.78929 13.0391 5 12.5304 5 12C5 11.4696 4.78929 10.9609 4.41421 10.5858C4.03914 10.2107 3.53043 10 3 10V3C3 2.73478 3.10536 2.48043 3.29289 2.29289C3.48043 2.10536 3.73478 2 4 2H20C20.2652 2 20.5196 2.10536 20.7071 2.29289C20.8946 2.48043 21 2.73478 21 3V10C20.4696 10 19.9609 10.2107 19.5858 10.5858C19.2107 10.9609 19 11.4696 19 12C19 12.5304 19.2107 13.0391 19.5858 13.4142C19.9609 13.7893 20.4696 14 21 14ZM9 6V8H15V6H9ZM9 16V18H15V16H9Z"/></g></g><defs><clipPath id="a"><rect width="24" height="24" fill="white"/></clipPath></defs></svg>

<svg width="24" height="24" fill="none" xmlns="http://www.w3.org/2000/svg"><g clip-path="url(#a)"><path d="M21 14v7a1 1 0 0 1-1 1H4a1 1 0 0 1-1-1v-7a2 2 0 1 0 0-4V3a1 1 0 0 1 1-1h16a1 1 0 0 1 1 1v7a2 2 0 0 0 0 4ZM9 6v2h6V6H9Zm0 10v2h6v-2H9Z" /></g><defs><clipPath id="a"><path fill="#fff" d="M0 0h24v24H0z"/></clipPath></defs></svg>
